X: 32970
T: Preston's
R: reel
M: 4/4
K: Gmajor
GB BA G3 A|FAAG FADF|GBBA GBdg|fgaf gedB|
GB BA G3 G|FAAG FADF|GBBA GBdg|fgaf g3 f||
gb ~b2 affg|agef gede|gb ~b2 faag|agef g3 f|
gb ~b2 affg|agef gede|g2 bg faag|agef gedB||

